flaticon/business/box.svg

<svg xmlns="http://www.w3.org/2000/svg" width="32" height="32" viewBox="0 0 24 24">
    <path d="M 19.820312 0 L 4.179688 0 L 0 6.683594 L 0 24 L 24 24 L 24 6.683594 Z M 19.378906 0.800781 L 22.878906 6.398438 L 14.800781 6.398438 L 14.800781 0.800781 Z M 12 0.800781 L 14 0.800781 L 14 6.398438 L 10 6.398438 L 10 0.800781 Z M 10 7.199219 L 10.398438 7.199219 C 10.398438 7.421875 10.578125 7.601562 10.800781 7.601562 C 11.019531 7.601562 11.199219 7.421875 11.199219 7.199219 L 12.800781 7.199219 C 12.800781 7.421875 12.980469 7.601562 13.199219 7.601562 C 13.421875 7.601562 13.601562 7.421875 13.601562 7.199219 L 14 7.199219 L 14 8.632812 L 13.601562 8.234375 L 12 9.835938 L 10.398438 8.234375 L 10 8.632812 Z M 4.621094 0.800781 L 9.199219 0.800781 L 9.199219 6.398438 L 1.121094 6.398438 Z M 10 23.199219 L 10 22.164062 L 10.398438 22.566406 L 12 20.964844 L 13.601562 22.566406 L 14 22.164062 L 14 23.199219 Z M 14.800781 23.199219 L 14.800781 20.234375 L 13.601562 21.433594 L 12 19.835938 L 10.398438 21.433594 L 9.199219 20.234375 L 9.199219 23.199219 L 0.800781 23.199219 L 0.800781 7.199219 L 9.199219 7.199219 L 9.199219 10.566406 L 10.398438 9.367188 L 12 10.964844 L 13.601562 9.367188 L 14.800781 10.566406 L 14.800781 7.199219 L 23.199219 7.199219 L 23.199219 23.199219 Z M 14.800781 23.199219"/>
    <path d="M 8 19.199219 L 16 19.199219 L 16 12 L 8 12 Z M 8.800781 12.800781 L 15.199219 12.800781 L 15.199219 18.398438 L 8.800781 18.398438 Z M 8.800781 12.800781"/>
    <path d="M12.398438 16.800781L10 16.800781C9.777344 16.800781 9.601562 16.980469 9.601562 17.199219 9.601562 17.421875 9.777344 17.601562 10 17.601562L12.398438 17.601562C12.621094 17.601562 12.800781 17.421875 12.800781 17.199219 12.800781 16.980469 12.621094 16.800781 12.398438 16.800781zM14 16.800781L13.601562 16.800781C13.378906 16.800781 13.199219 16.980469 13.199219 17.199219 13.199219 17.421875 13.378906 17.601562 13.601562 17.601562L14 17.601562C14.222656 17.601562 14.398438 17.421875 14.398438 17.199219 14.398438 16.980469 14.222656 16.800781 14 16.800781zM14 13.601562L11.601562 13.601562C11.378906 13.601562 11.199219 13.777344 11.199219 14 11.199219 14.222656 11.378906 14.398438 11.601562 14.398438L14 14.398438C14.222656 14.398438 14.398438 14.222656 14.398438 14 14.398438 13.777344 14.222656 13.601562 14 13.601562zM14 15.199219L13.199219 15.199219C12.980469 15.199219 12.800781 15.378906 12.800781 15.601562 12.800781 15.820312 12.980469 16 13.199219 16L14 16C14.222656 16 14.398438 15.820312 14.398438 15.601562 14.398438 15.378906 14.222656 15.199219 14 15.199219zM10 16L10.800781 16C11.019531 16 11.199219 15.820312 11.199219 15.601562 11.199219 15.378906 11.019531 15.199219 10.800781 15.199219L10 15.199219C9.777344 15.199219 9.601562 15.378906 9.601562 15.601562 9.601562 15.820312 9.777344 16 10 16zM10 14.398438L10.398438 14.398438C10.621094 14.398438 10.800781 14.222656 10.800781 14 10.800781 13.777344 10.621094 13.601562 10.398438 13.601562L10 13.601562C9.777344 13.601562 9.601562 13.777344 9.601562 14 9.601562 14.222656 9.777344 14.398438 10 14.398438zM12.285156 15.882812C12.355469 15.808594 12.398438 15.703125 12.398438 15.601562 12.398438 15.496094 12.355469 15.390625 12.285156 15.316406 12.132812 15.167969 11.863281 15.167969 11.714844 15.316406 11.644531 15.390625 11.601562 15.492188 11.601562 15.601562 11.601562 15.707031 11.644531 15.808594 11.714844 15.882812 11.792969 15.957031 11.894531 16 12 16 12.105469 16 12.207031 15.957031 12.285156 15.882812zM12.398438 1.199219C12.398438 1.421875 12.222656 1.601562 12 1.601562 11.777344 1.601562 11.601562 1.421875 11.601562 1.199219 11.601562.980469 11.777344.800781 12 .800781 12.222656.800781 12.398438.980469 12.398438 1.199219zM11.199219 2.398438C11.199219 2.621094 11.019531 2.800781 10.800781 2.800781 10.578125 2.800781 10.398438 2.621094 10.398438 2.398438 10.398438 2.179688 10.578125 2 10.800781 2 11.019531 2 11.199219 2.179688 11.199219 2.398438zM11.199219 4.800781C11.199219 5.019531 11.019531 5.199219 10.800781 5.199219 10.578125 5.199219 10.398438 5.019531 10.398438 4.800781 10.398438 4.578125 10.578125 4.398438 10.800781 4.398438 11.019531 4.398438 11.199219 4.578125 11.199219 4.800781zM12.398438 3.601562C12.398438 3.820312 12.222656 4 12 4 11.777344 4 11.601562 3.820312 11.601562 3.601562 11.601562 3.378906 11.777344 3.199219 12 3.199219 12.222656 3.199219 12.398438 3.378906 12.398438 3.601562zM13.601562 2.398438C13.601562 2.621094 13.421875 2.800781 13.199219 2.800781 12.980469 2.800781 12.800781 2.621094 12.800781 2.398438 12.800781 2.179688 12.980469 2 13.199219 2 13.421875 2 13.601562 2.179688 13.601562 2.398438zM13.601562 4.800781C13.601562 5.019531 13.421875 5.199219 13.199219 5.199219 12.980469 5.199219 12.800781 5.019531 12.800781 4.800781 12.800781 4.578125 12.980469 4.398438 13.199219 4.398438 13.421875 4.398438 13.601562 4.578125 13.601562 4.800781zM12.398438 6C12.398438 6.222656 12.222656 6.398438 12 6.398438 11.777344 6.398438 11.601562 6.222656 11.601562 6 11.601562 5.777344 11.777344 5.601562 12 5.601562 12.222656 5.601562 12.398438 5.777344 12.398438 6zM12.398438 8.398438C12.398438 8.621094 12.222656 8.800781 12 8.800781 11.777344 8.800781 11.601562 8.621094 11.601562 8.398438 11.601562 8.179688 11.777344 8 12 8 12.222656 8 12.398438 8.179688 12.398438 8.398438zM12.398438 8.398438"/>
</svg>

<svg xmlns="http://www.w3.org/2000/svg" width="32" height="32" viewBox="0 0 24 24">
    <path d="M19.82 0H4.18L0 6.684V24h24V6.684zm-.441.8l3.5 5.598H14.8V.801zM12 .8h2v5.598h-4V.801zm-2 6.4h.398a.401.401 0 0 0 .8 0h1.603a.401.401 0 1 0 .8 0H14v1.433l-.398-.399L12 9.836l-1.602-1.602-.398.399zM4.621.8H9.2v5.598H1.121zM10 23.2v-1.036l.398.402L12 20.965l1.602 1.601.398-.402V23.2zm4.8 0v-2.966l-1.198 1.2L12 19.836l-1.602 1.598-1.199-1.2V23.2H.801v-16h8.398v3.367l1.2-1.199L12 10.965l1.602-1.598 1.199 1.2V7.198h8.398v16zm0 0"/>
    <path d="M8 19.2h8V12H8zm.8-6.4h6.4v5.598H8.8zm0 0"/>
    <path d="M12.398 16.8H10a.398.398 0 0 0-.398.4c0 .222.175.402.398.402h2.398a.401.401 0 0 0 0-.8zm0 0M14 16.8h-.398a.401.401 0 1 0 0 .802H14c.223 0 .398-.18.398-.403a.398.398 0 0 0-.398-.398zm0 0M14 13.602h-2.398a.398.398 0 1 0 0 .796H14a.395.395 0 0 0 .398-.398.395.395 0 0 0-.398-.398zm0 0M14 15.2h-.8a.401.401 0 0 0 0 .8h.8c.223 0 .398-.18.398-.398a.398.398 0 0 0-.398-.403zm0 0M10 16h.8a.4.4 0 0 0 0-.8H10a.398.398 0 0 0-.398.402c0 .218.175.398.398.398zm0 0M10 14.398h.398a.398.398 0 1 0 0-.796H10a.395.395 0 0 0-.398.398c0 .223.175.398.398.398zm0 0M12.285 15.883a.42.42 0 0 0 .113-.281.423.423 0 0 0-.113-.286.42.42 0 0 0-.57 0 .413.413 0 0 0 0 .566c.078.075.18.118.285.118a.416.416 0 0 0 .285-.117zm0 0M12.398 1.2a.398.398 0 1 1-.796 0 .398.398 0 1 1 .796 0zm0 0M11.2 2.398a.401.401 0 1 1-.803.003.401.401 0 0 1 .802-.003zm0 0M11.2 4.8a.4.4 0 1 1-.801-.003.4.4 0 0 1 .8.004zm0 0M12.398 3.602a.398.398 0 1 1-.796 0 .398.398 0 1 1 .796 0zm0 0M13.602 2.398a.401.401 0 1 1 0 0zm0 0M13.602 4.8a.401.401 0 1 1-.802-.004.401.401 0 0 1 .802.005zm0 0M12.398 6a.395.395 0 0 1-.398.398.395.395 0 0 1-.398-.398c0-.223.175-.398.398-.398.223 0 .398.175.398.398zm0 0M12.398 8.398a.398.398 0 1 1-.796 0 .398.398 0 1 1 .796 0zm0 0"/>
</svg>
